images/6603856.svg

<?xml version="1.0" encoding="UTF-8"?>
<svg xmlns="http://www.w3.org/2000/svg" xmlns:xlink="http://www.w3.org/1999/xlink" width="300pt" height="300pt" viewBox="0 0 300 300" version="1.1">
<defs>
<g>
<symbol overflow="visible" id="glyph0-0">
<path style="stroke:none;" d="M 0.453125 1.59375 L 0.453125 -6.34375 L 4.953125 -6.34375 L 4.953125 1.59375 Z M 0.953125 1.09375 L 4.453125 1.09375 L 4.453125 -5.84375 L 0.953125 -5.84375 Z M 0.953125 1.09375 "/>
</symbol>
<symbol overflow="visible" id="glyph0-1">
<path style="stroke:none;" d="M 3.546875 -5.953125 C 2.898438 -5.953125 2.382812 -5.710938 2 -5.234375 C 1.625 -4.753906 1.4375 -4.101562 1.4375 -3.28125 C 1.4375 -2.445312 1.625 -1.789062 2 -1.3125 C 2.382812 -0.832031 2.898438 -0.59375 3.546875 -0.59375 C 4.191406 -0.59375 4.703125 -0.832031 5.078125 -1.3125 C 5.453125 -1.789062 5.640625 -2.445312 5.640625 -3.28125 C 5.640625 -4.101562 5.453125 -4.753906 5.078125 -5.234375 C 4.703125 -5.710938 4.191406 -5.953125 3.546875 -5.953125 Z M 3.546875 -6.6875 C 4.460938 -6.6875 5.195312 -6.375 5.75 -5.75 C 6.300781 -5.132812 6.578125 -4.3125 6.578125 -3.28125 C 6.578125 -2.238281 6.300781 -1.410156 5.75 -0.796875 C 5.195312 -0.179688 4.460938 0.125 3.546875 0.125 C 2.617188 0.125 1.878906 -0.179688 1.328125 -0.796875 C 0.773438 -1.410156 0.5 -2.238281 0.5 -3.28125 C 0.5 -4.3125 0.773438 -5.132812 1.328125 -5.75 C 1.878906 -6.375 2.617188 -6.6875 3.546875 -6.6875 Z M 3.546875 -6.6875 "/>
</symbol>
<symbol overflow="visible" id="glyph0-2">
<path style="stroke:none;" d="M 0.890625 -6.5625 L 2.078125 -6.5625 L 4.984375 -1.078125 L 4.984375 -6.5625 L 5.84375 -6.5625 L 5.84375 0 L 4.65625 0 L 1.75 -5.484375 L 1.75 0 L 0.890625 0 Z M 0.890625 -6.5625 "/>
</symbol>
<symbol overflow="visible" id="glyph0-3">
<path style="stroke:none;" d="M 5.796875 -6.0625 L 5.796875 -5.125 C 5.492188 -5.394531 5.171875 -5.597656 4.828125 -5.734375 C 4.492188 -5.878906 4.140625 -5.953125 3.765625 -5.953125 C 3.015625 -5.953125 2.4375 -5.722656 2.03125 -5.265625 C 1.632812 -4.804688 1.4375 -4.144531 1.4375 -3.28125 C 1.4375 -2.414062 1.632812 -1.753906 2.03125 -1.296875 C 2.4375 -0.835938 3.015625 -0.609375 3.765625 -0.609375 C 4.140625 -0.609375 4.492188 -0.675781 4.828125 -0.8125 C 5.171875 -0.945312 5.492188 -1.15625 5.796875 -1.4375 L 5.796875 -0.5 C 5.484375 -0.289062 5.15625 -0.132812 4.8125 -0.03125 C 4.46875 0.0703125 4.097656 0.125 3.703125 0.125 C 2.710938 0.125 1.929688 -0.175781 1.359375 -0.78125 C 0.785156 -1.394531 0.5 -2.226562 0.5 -3.28125 C 0.5 -4.332031 0.785156 -5.160156 1.359375 -5.765625 C 1.929688 -6.378906 2.710938 -6.6875 3.703125 -6.6875 C 4.097656 -6.6875 4.46875 -6.632812 4.8125 -6.53125 C 5.164062 -6.425781 5.492188 -6.269531 5.796875 -6.0625 Z M 5.796875 -6.0625 "/>
</symbol>
<symbol overflow="visible" id="glyph0-4">
<path style="stroke:none;" d="M 0.84375 -6.84375 L 1.65625 -6.84375 L 1.65625 0 L 0.84375 0 Z M 0.84375 -6.84375 "/>
</symbol>
</g>
</defs>
<g id="surface37393">
<rect x="0" y="0" width="300" height="300" style="fill:rgb(100%,100%,100%);fill-opacity:1;stroke:none;"/>
<path style="fill:none;stroke-width:1.2;stroke-linecap:butt;stroke-linejoin:miter;stroke:rgb(0%,0%,0%);stroke-opacity:1;stroke-miterlimit:10;" d="M 264.75 218.742188 L 253.273438 215.785156 "/>
<path style="fill:none;stroke-width:1.2;stroke-linecap:butt;stroke-linejoin:miter;stroke:rgb(100%,0%,0%);stroke-opacity:1;stroke-miterlimit:10;" d="M 253.273438 215.785156 L 241.800781 212.828125 "/>
<path style="fill:none;stroke-width:1.2;stroke-linecap:butt;stroke-linejoin:miter;stroke:rgb(100%,0%,0%);stroke-opacity:1;stroke-miterlimit:10;" d="M 241.800781 212.828125 L 238.621094 201.414062 "/>
<path style="fill:none;stroke-width:1.2;stroke-linecap:butt;stroke-linejoin:miter;stroke:rgb(0%,0%,0%);stroke-opacity:1;stroke-miterlimit:10;" d="M 238.621094 201.414062 L 235.445312 189.996094 "/>
<path style=" stroke:none;fill-rule:nonzero;fill:rgb(100%,100%,100%);fill-opacity:1;" d="M 237.800781 207.328125 L 245.800781 207.328125 L 245.800781 218.328125 L 237.800781 218.328125 Z M 237.800781 207.328125 "/>
<g style="fill:rgb(100%,0%,0%);fill-opacity:1;">
  <use xlink:href="#glyph0-1" x="237.800781" y="215.991211"/>
</g>
<path style="fill:none;stroke-width:1.2;stroke-linecap:butt;stroke-linejoin:miter;stroke:rgb(0%,0%,0%);stroke-opacity:1;stroke-miterlimit:10;" d="M 237.433594 191.949219 L 245.734375 183.492188 "/>
<path style="fill:none;stroke-width:1.2;stroke-linecap:butt;stroke-linejoin:miter;stroke:rgb(100%,0%,0%);stroke-opacity:1;stroke-miterlimit:10;" d="M 245.734375 183.492188 L 254.03125 175.03125 "/>
<path style="fill:none;stroke-width:1.2;stroke-linecap:butt;stroke-linejoin:miter;stroke:rgb(0%,0%,0%);stroke-opacity:1;stroke-miterlimit:10;" d="M 233.453125 188.046875 L 241.75 179.585938 "/>
<path style="fill:none;stroke-width:1.2;stroke-linecap:butt;stroke-linejoin:miter;stroke:rgb(100%,0%,0%);stroke-opacity:1;stroke-miterlimit:10;" d="M 241.75 179.585938 L 250.050781 171.125 "/>
<path style="fill:none;stroke-width:1.2;stroke-linecap:butt;stroke-linejoin:miter;stroke:rgb(0%,0%,0%);stroke-opacity:1;stroke-miterlimit:10;" d="M 235.445312 189.996094 L 223.96875 187.042969 "/>
<path style="fill:none;stroke-width:1.2;stroke-linecap:butt;stroke-linejoin:miter;stroke:rgb(0%,0%,100%);stroke-opacity:1;stroke-miterlimit:10;" d="M 223.96875 187.042969 L 212.496094 184.085938 "/>
<path style=" stroke:none;fill-rule:nonzero;fill:rgb(100%,100%,100%);fill-opacity:1;" d="M 248.039062 167.578125 L 256.039062 167.578125 L 256.039062 178.578125 L 248.039062 178.578125 Z M 248.039062 167.578125 "/>
<g style="fill:rgb(100%,0%,0%);fill-opacity:1;">
  <use xlink:href="#glyph0-1" x="248.039062" y="176.241211"/>
</g>
<path style="fill:none;stroke-width:1.2;stroke-linecap:butt;stroke-linejoin:miter;stroke:rgb(0%,0%,100%);stroke-opacity:1;stroke-miterlimit:10;" d="M 212.496094 184.085938 L 204.199219 192.546875 "/>
<path style="fill:none;stroke-width:1.2;stroke-linecap:butt;stroke-linejoin:miter;stroke:rgb(0%,0%,0%);stroke-opacity:1;stroke-miterlimit:10;" d="M 204.199219 192.546875 L 195.898438 201.003906 "/>
<path style="fill:none;stroke-width:1.2;stroke-linecap:butt;stroke-linejoin:miter;stroke:rgb(0%,0%,0%);stroke-opacity:1;stroke-miterlimit:10;" d="M 206.140625 161.253906 L 209.316406 172.671875 "/>
<path style="fill:none;stroke-width:1.2;stroke-linecap:butt;stroke-linejoin:miter;stroke:rgb(0%,0%,100%);stroke-opacity:1;stroke-miterlimit:10;" d="M 209.316406 172.671875 L 212.496094 184.085938 "/>
<path style=" stroke:none;fill-rule:nonzero;fill:rgb(100%,100%,100%);fill-opacity:1;" d="M 209.496094 178.585938 L 216.496094 178.585938 L 216.496094 189.585938 L 209.496094 189.585938 Z M 209.496094 178.585938 "/>
<g style="fill:rgb(0%,0%,100%);fill-opacity:1;">
  <use xlink:href="#glyph0-2" x="209.496094" y="187.249023"/>
</g>
<path style="fill:none;stroke-width:1.2;stroke-linecap:butt;stroke-linejoin:miter;stroke:rgb(0%,0%,0%);stroke-opacity:1;stroke-miterlimit:10;" d="M 195.898438 201.003906 L 172.949219 195.09375 "/>
<path style="fill:none;stroke-width:1.2;stroke-linecap:butt;stroke-linejoin:miter;stroke:rgb(0%,0%,0%);stroke-opacity:1;stroke-miterlimit:10;" d="M 172.949219 195.09375 L 169.773438 183.679688 "/>
<path style="fill:none;stroke-width:1.2;stroke-linecap:butt;stroke-linejoin:miter;stroke:rgb(0%,0%,100%);stroke-opacity:1;stroke-miterlimit:10;" d="M 169.773438 183.679688 L 166.59375 172.261719 "/>
<path style="fill:none;stroke-width:1.2;stroke-linecap:butt;stroke-linejoin:miter;stroke:rgb(0%,0%,100%);stroke-opacity:1;stroke-miterlimit:10;" d="M 166.59375 172.261719 L 174.890625 163.804688 "/>
<path style="fill:none;stroke-width:1.2;stroke-linecap:butt;stroke-linejoin:miter;stroke:rgb(0%,0%,0%);stroke-opacity:1;stroke-miterlimit:10;" d="M 174.890625 163.804688 L 183.191406 155.34375 "/>
<path style="fill:none;stroke-width:1.2;stroke-linecap:butt;stroke-linejoin:miter;stroke:rgb(0%,0%,100%);stroke-opacity:1;stroke-miterlimit:10;" d="M 166.59375 172.261719 L 155.121094 169.304688 "/>
<path style="fill:none;stroke-width:1.2;stroke-linecap:butt;stroke-linejoin:miter;stroke:rgb(0%,0%,0%);stroke-opacity:1;stroke-miterlimit:10;" d="M 155.121094 169.304688 L 143.644531 166.351562 "/>
<path style=" stroke:none;fill-rule:nonzero;fill:rgb(100%,100%,100%);fill-opacity:1;" d="M 163.59375 166.761719 L 170.59375 166.761719 L 170.59375 177.761719 L 163.59375 177.761719 Z M 163.59375 166.761719 "/>
<g style="fill:rgb(0%,0%,100%);fill-opacity:1;">
  <use xlink:href="#glyph0-2" x="163.59375" y="175.424805"/>
</g>
<path style="fill:none;stroke-width:1.2;stroke-linecap:butt;stroke-linejoin:miter;stroke:rgb(0%,0%,0%);stroke-opacity:1;stroke-miterlimit:10;" d="M 183.191406 155.34375 L 206.140625 161.253906 "/>
<path style="fill:none;stroke-width:1;stroke-linecap:butt;stroke-linejoin:miter;stroke:rgb(0%,0%,0%);stroke-opacity:1;stroke-miterlimit:10;" d="M 183.191406 155.34375 L 183.191406 155.34375 M 182.898438 152.355469 L 181.894531 152.636719 M 182.609375 149.371094 L 180.601562 149.929688 M 182.320312 146.386719 L 179.304688 147.222656 M 182.03125 143.398438 L 178.011719 144.519531 M 181.738281 140.414062 L 176.71875 141.8125 M 181.449219 137.425781 L 175.421875 139.105469 M 181.160156 134.441406 L 174.128906 136.398438 M 180.871094 131.457031 L 172.832031 133.691406 M 180.863281 131.390625 L 172.804688 133.632812 "/>
<path style="fill:none;stroke-width:1.2;stroke-linecap:butt;stroke-linejoin:miter;stroke:rgb(0%,0%,0%);stroke-opacity:1;stroke-miterlimit:10;" d="M 176.835938 132.511719 L 185.132812 124.050781 "/>
<path style="fill:none;stroke-width:1.2;stroke-linecap:butt;stroke-linejoin:miter;stroke:rgb(0%,0%,100%);stroke-opacity:1;stroke-miterlimit:10;" d="M 185.132812 124.050781 L 193.429688 115.59375 "/>
<path style="fill:none;stroke-width:1.2;stroke-linecap:butt;stroke-linejoin:miter;stroke:rgb(0%,0%,100%);stroke-opacity:1;stroke-miterlimit:10;" d="M 193.429688 115.59375 L 191.460938 103.90625 "/>
<path style="fill:none;stroke-width:1.2;stroke-linecap:butt;stroke-linejoin:miter;stroke:rgb(0%,0%,0%);stroke-opacity:1;stroke-miterlimit:10;" d="M 191.460938 103.90625 L 189.496094 92.222656 "/>
<path style="fill:none;stroke-width:1.2;stroke-linecap:butt;stroke-linejoin:miter;stroke:rgb(0%,0%,0%);stroke-opacity:1;stroke-miterlimit:10;" d="M 216.871094 119.074219 L 205.148438 117.332031 "/>
<path style="fill:none;stroke-width:1.2;stroke-linecap:butt;stroke-linejoin:miter;stroke:rgb(0%,0%,100%);stroke-opacity:1;stroke-miterlimit:10;" d="M 205.148438 117.332031 L 193.429688 115.59375 "/>
<path style=" stroke:none;fill-rule:nonzero;fill:rgb(100%,100%,100%);fill-opacity:1;" d="M 190.429688 110.09375 L 197.429688 110.09375 L 197.429688 121.09375 L 190.429688 121.09375 Z M 190.429688 110.09375 "/>
<g style="fill:rgb(0%,0%,100%);fill-opacity:1;">
  <use xlink:href="#glyph0-2" x="190.429688" y="118.756836"/>
</g>
<path style="fill:none;stroke-width:1.2;stroke-linecap:butt;stroke-linejoin:miter;stroke:rgb(0%,0%,0%);stroke-opacity:1;stroke-miterlimit:10;" d="M 189.496094 92.222656 L 210.507812 81.257812 "/>
<path style="fill:none;stroke-width:1.2;stroke-linecap:butt;stroke-linejoin:miter;stroke:rgb(0%,0%,0%);stroke-opacity:1;stroke-miterlimit:10;" d="M 210.507812 81.257812 L 227.425781 97.855469 "/>
<path style="fill:none;stroke-width:1.2;stroke-linecap:butt;stroke-linejoin:miter;stroke:rgb(0%,0%,0%);stroke-opacity:1;stroke-miterlimit:10;" d="M 227.425781 97.855469 L 216.871094 119.074219 "/>
<path style="fill:none;stroke-width:1.2;stroke-linecap:butt;stroke-linejoin:miter;stroke:rgb(0%,0%,0%);stroke-opacity:1;stroke-miterlimit:10;" d="M 146.332031 165.601562 L 143.152344 154.1875 "/>
<path style="fill:none;stroke-width:1.2;stroke-linecap:butt;stroke-linejoin:miter;stroke:rgb(100%,0%,0%);stroke-opacity:1;stroke-miterlimit:10;" d="M 143.152344 154.1875 L 139.976562 142.773438 "/>
<path style="fill:none;stroke-width:1.2;stroke-linecap:butt;stroke-linejoin:miter;stroke:rgb(0%,0%,0%);stroke-opacity:1;stroke-miterlimit:10;" d="M 140.957031 167.097656 L 137.78125 155.683594 "/>
<path style="fill:none;stroke-width:1.2;stroke-linecap:butt;stroke-linejoin:miter;stroke:rgb(100%,0%,0%);stroke-opacity:1;stroke-miterlimit:10;" d="M 137.78125 155.683594 L 134.605469 144.265625 "/>
<path style="fill:none;stroke-width:1.2;stroke-linecap:butt;stroke-linejoin:miter;stroke:rgb(0%,0%,0%);stroke-opacity:1;stroke-miterlimit:10;" d="M 143.644531 166.351562 L 127.050781 183.269531 "/>
<path style=" stroke:none;fill-rule:nonzero;fill:rgb(100%,100%,100%);fill-opacity:1;" d="M 133.289062 138.019531 L 141.289062 138.019531 L 141.289062 149.019531 L 133.289062 149.019531 Z M 133.289062 138.019531 "/>
<g style="fill:rgb(100%,0%,0%);fill-opacity:1;">
  <use xlink:href="#glyph0-1" x="133.289062" y="146.682617"/>
</g>
<path style="fill:none;stroke-width:1.2;stroke-linecap:butt;stroke-linejoin:miter;stroke:rgb(0%,0%,0%);stroke-opacity:1;stroke-miterlimit:10;" d="M 127.050781 183.269531 L 104.101562 177.359375 "/>
<path style="fill:none;stroke-width:1.2;stroke-linecap:butt;stroke-linejoin:miter;stroke:rgb(0%,0%,0%);stroke-opacity:1;stroke-miterlimit:10;" d="M 104.101562 177.359375 L 97.746094 154.527344 "/>
<path style="fill:none;stroke-width:1.2;stroke-linecap:butt;stroke-linejoin:miter;stroke:rgb(0%,0%,0%);stroke-opacity:1;stroke-miterlimit:10;" d="M 98.09375 176.570312 L 93.007812 158.304688 "/>
<path style="fill:none;stroke-width:1.2;stroke-linecap:butt;stroke-linejoin:miter;stroke:rgb(0%,0%,0%);stroke-opacity:1;stroke-miterlimit:10;" d="M 87.503906 194.277344 L 104.101562 177.359375 "/>
<path style="fill:none;stroke-width:1.2;stroke-linecap:butt;stroke-linejoin:miter;stroke:rgb(0%,0%,0%);stroke-opacity:1;stroke-miterlimit:10;" d="M 97.746094 154.527344 L 74.792969 148.613281 "/>
<path style="fill:none;stroke-width:1.2;stroke-linecap:butt;stroke-linejoin:miter;stroke:rgb(0%,0%,0%);stroke-opacity:1;stroke-miterlimit:10;" d="M 74.792969 148.613281 L 58.199219 165.535156 "/>
<path style="fill:none;stroke-width:1.2;stroke-linecap:butt;stroke-linejoin:miter;stroke:rgb(0%,0%,0%);stroke-opacity:1;stroke-miterlimit:10;" d="M 77.117188 154.210938 L 63.839844 167.746094 "/>
<path style="fill:none;stroke-width:1.2;stroke-linecap:butt;stroke-linejoin:miter;stroke:rgb(0%,0%,0%);stroke-opacity:1;stroke-miterlimit:10;" d="M 74.792969 148.613281 L 71.617188 137.199219 "/>
<path style="fill:none;stroke-width:1.2;stroke-linecap:butt;stroke-linejoin:miter;stroke:rgb(0%,80%,0%);stroke-opacity:1;stroke-miterlimit:10;" d="M 71.617188 137.199219 L 68.441406 125.785156 "/>
<path style="fill:none;stroke-width:1.2;stroke-linecap:butt;stroke-linejoin:miter;stroke:rgb(0%,0%,0%);stroke-opacity:1;stroke-miterlimit:10;" d="M 58.199219 165.535156 L 64.554688 188.367188 "/>
<path style="fill:none;stroke-width:1.2;stroke-linecap:butt;stroke-linejoin:miter;stroke:rgb(0%,0%,0%);stroke-opacity:1;stroke-miterlimit:10;" d="M 58.199219 165.535156 L 46.726562 162.578125 "/>
<path style="fill:none;stroke-width:1.2;stroke-linecap:butt;stroke-linejoin:miter;stroke:rgb(0%,80%,0%);stroke-opacity:1;stroke-miterlimit:10;" d="M 46.726562 162.578125 L 35.25 159.621094 "/>
<path style="fill:none;stroke-width:1.2;stroke-linecap:butt;stroke-linejoin:miter;stroke:rgb(0%,0%,0%);stroke-opacity:1;stroke-miterlimit:10;" d="M 64.554688 188.367188 L 87.503906 194.277344 "/>
<path style="fill:none;stroke-width:1.2;stroke-linecap:butt;stroke-linejoin:miter;stroke:rgb(0%,0%,0%);stroke-opacity:1;stroke-miterlimit:10;" d="M 68.242188 183.558594 L 86.601562 188.285156 "/>
<path style=" stroke:none;fill-rule:nonzero;fill:rgb(100%,100%,100%);fill-opacity:1;" d="M 25.25 154.121094 L 35.25 154.121094 L 35.25 165.121094 L 25.25 165.121094 Z M 25.25 154.121094 "/>
<g style="fill:rgb(0%,80%,0%);fill-opacity:1;">
  <use xlink:href="#glyph0-3" x="25.25" y="162.78418"/>
  <use xlink:href="#glyph0-4" x="31.763672" y="162.78418"/>
</g>
<path style=" stroke:none;fill-rule:nonzero;fill:rgb(100%,100%,100%);fill-opacity:1;" d="M 63.441406 120.285156 L 73.441406 120.285156 L 73.441406 131.285156 L 63.441406 131.285156 Z M 63.441406 120.285156 "/>
<g style="fill:rgb(0%,80%,0%);fill-opacity:1;">
  <use xlink:href="#glyph0-3" x="63.441406" y="128.948242"/>
  <use xlink:href="#glyph0-4" x="69.955078" y="128.948242"/>
</g>
</g>
</svg>

<svg xmlns="http://www.w3.org/2000/svg" xmlns:xlink="http://www.w3.org/1999/xlink" width="300pt" height="300pt" viewBox="0 0 300 300"><defs><symbol overflow="visible"><path d="M.453 1.594v-7.938h4.5v7.938zm.5-.5h3.5v-6.938h-3.5zm0 0"/></symbol><symbol overflow="visible" id="a"><path d="M3.547-5.953c-.65 0-1.164.242-1.547.72-.375.48-.563 1.13-.563 1.952 0 .835.188 1.49.563 1.967.383.48.898.72 1.547.72.644 0 1.156-.24 1.53-.72.376-.476.564-1.132.564-1.968 0-.822-.187-1.474-.562-1.954-.375-.477-.887-.72-1.53-.72zm0-.734c.914 0 1.648.312 2.203.937.55.617.828 1.438.828 2.47 0 1.042-.277 1.87-.828 2.483-.555.617-1.29.922-2.203.922-.93 0-1.668-.305-2.22-.922C.774-1.41.5-2.237.5-3.28c0-1.033.273-1.853.828-2.47.55-.625 1.29-.938 2.22-.938zm0 0"/></symbol><symbol overflow="visible" id="b"><path d="M.89-6.563H2.08l2.906 5.485v-5.484h.86V0H4.656L1.75-5.484V0H.89zm0 0"/></symbol><symbol overflow="visible" id="c"><path d="M5.797-6.063v.938c-.305-.27-.625-.473-.97-.61-.335-.144-.686-.218-1.06-.218-.75 0-1.33.23-1.736.687-.397.46-.592 1.12-.592 1.985 0 .866.195 1.526.593 1.983.408.46.986.688 1.736.688.375 0 .726-.066 1.062-.203.344-.132.664-.343.97-.625V-.5c-.314.21-.642.367-.986.47-.343.1-.714.155-1.11.155-.99 0-1.772-.3-2.343-.906C.784-1.396.5-2.228.5-3.28c0-1.052.285-1.88.86-2.486.57-.613 1.35-.92 2.343-.92.395-.002.766.053 1.11.155.35.104.68.26.984.468zm0 0"/></symbol><symbol overflow="visible" id="d"><path d="M.844-6.844h.812V0H.844zm0 0"/></symbol></defs><g><path fill="#fff" d="M0 0h300v300H0z"/><path d="M264.75 218.742l-11.477-2.957" stroke-width="1.2" stroke="#000" stroke-miterlimit="10" fill="none"/><path d="M253.273 215.785l-11.472-2.957M241.8 212.828l-3.18-11.414" stroke-width="1.2" stroke="#f00" stroke-miterlimit="10" fill="none"/><path d="M238.62 201.414l-3.175-11.418" stroke-width="1.2" stroke="#000" stroke-miterlimit="10" fill="none"/><path d="M237.8 207.328h8v11h-8zm0 0" fill="#fff"/><use xlink:href="#a" x="237.801" y="215.991" fill="#f00"/><path d="M237.434 191.95l8.3-8.458" stroke-width="1.2" stroke="#000" stroke-miterlimit="10" fill="none"/><path d="M245.734 183.492l8.297-8.46" stroke-width="1.2" stroke="#f00" stroke-miterlimit="10" fill="none"/><path d="M233.453 188.047l8.297-8.46" stroke-width="1.2" stroke="#000" stroke-miterlimit="10" fill="none"/><path d="M241.75 179.586l8.3-8.46" stroke-width="1.2" stroke="#f00" stroke-miterlimit="10" fill="none"/><path d="M235.445 189.996l-11.476-2.953" stroke-width="1.2" stroke="#000" stroke-miterlimit="10" fill="none"/><path d="M223.97 187.043l-11.474-2.957" stroke-width="1.2" stroke="#00f" stroke-miterlimit="10" fill="none"/><path d="M248.04 167.578h8v11h-8zm0 0" fill="#fff"/><use xlink:href="#a" x="248.039" y="176.241" fill="#f00"/><path d="M212.496 184.086l-8.297 8.46" stroke-width="1.2" stroke="#00f" stroke-miterlimit="10" fill="none"/><path d="M204.2 192.547l-8.302 8.457M206.14 161.254l3.176 11.418" stroke-width="1.2" stroke="#000" stroke-miterlimit="10" fill="none"/><path d="M209.316 172.672l3.18 11.414" stroke-width="1.2" stroke="#00f" stroke-miterlimit="10" fill="none"/><path d="M209.496 178.586h7v11h-7zm0 0" fill="#fff"/><use xlink:href="#b" x="209.496" y="187.249" fill="#00f"/><path d="M195.898 201.004l-22.95-5.91M172.95 195.094l-3.177-11.414" stroke-width="1.2" stroke="#000" stroke-miterlimit="10" fill="none"/><path d="M169.773 183.68l-3.18-11.418M166.594 172.262l8.297-8.457" stroke-width="1.2" stroke="#00f" stroke-miterlimit="10" fill="none"/><path d="M174.89 163.805l8.3-8.46" stroke-width="1.2" stroke="#000" stroke-miterlimit="10" fill="none"/><path d="M166.594 172.262l-11.473-2.957" stroke-width="1.2" stroke="#00f" stroke-miterlimit="10" fill="none"/><path d="M155.12 169.305l-11.475-2.953" stroke-width="1.2" stroke="#000" stroke-miterlimit="10" fill="none"/><path d="M163.594 166.762h7v11h-7zm0 0" fill="#fff"/><use xlink:href="#b" x="163.594" y="175.425" fill="#00f"/><path d="M183.19 155.344l22.95 5.91" stroke-width="1.2" stroke="#000" stroke-miterlimit="10" fill="none"/><path d="M183.19 155.344m-.292-2.99l-1.003.283m.714-3.266l-2.008.56m1.718-3.543l-3.015.836m2.726-3.825l-4.018 1.122m3.726-4.106l-5.02 1.4m4.73-4.388l-6.026 1.68m5.738-4.665l-7.03 1.958m6.74-4.94l-8.038 2.233m8.03-2.3l-8.057 2.243" stroke="#000" stroke-miterlimit="10" fill="none"/><path d="M176.836 132.512l8.297-8.46" stroke-width="1.2" stroke="#000" stroke-miterlimit="10" fill="none"/><path d="M185.133 124.05l8.297-8.456M193.43 115.594l-1.97-11.688" stroke-width="1.2" stroke="#00f" stroke-miterlimit="10" fill="none"/><path d="M191.46 103.906l-1.964-11.683M216.87 119.074l-11.722-1.742" stroke-width="1.2" stroke="#000" stroke-miterlimit="10" fill="none"/><path d="M205.148 117.332l-11.718-1.738" stroke-width="1.2" stroke="#00f" stroke-miterlimit="10" fill="none"/><path d="M190.43 110.094h7v11h-7zm0 0" fill="#fff"/><use xlink:href="#b" x="190.43" y="118.757" fill="#00f"/><path d="M189.496 92.223l21.012-10.965M210.508 81.258l16.918 16.597M227.426 97.855l-10.555 21.22M146.332 165.602l-3.18-11.415" stroke-width="1.2" stroke="#000" stroke-miterlimit="10" fill="none"/><path d="M143.152 154.188l-3.175-11.415" stroke-width="1.2" stroke="#f00" stroke-miterlimit="10" fill="none"/><path d="M140.957 167.098l-3.176-11.414" stroke-width="1.2" stroke="#000" stroke-miterlimit="10" fill="none"/><path d="M137.78 155.684l-3.175-11.418" stroke-width="1.2" stroke="#f00" stroke-miterlimit="10" fill="none"/><path d="M143.645 166.352L127.05 183.27" stroke-width="1.2" stroke="#000" stroke-miterlimit="10" fill="none"/><path d="M133.29 138.02h8v11h-8zm0 0" fill="#fff"/><use xlink:href="#a" x="133.289" y="146.683" fill="#f00"/><path d="M127.05 183.27l-22.948-5.91M104.102 177.36l-6.356-22.833M98.094 176.57l-5.086-18.265M87.504 194.277l16.598-16.918M97.746 154.527l-22.953-5.914M74.793 148.613L58.2 165.535M77.117 154.21L63.84 167.747M74.793 148.613L71.617 137.2" stroke-width="1.2" stroke="#000" stroke-miterlimit="10" fill="none"/><path d="M71.617 137.2l-3.176-11.415" stroke-width="1.2" stroke="#0c0" stroke-miterlimit="10" fill="none"/><path d="M58.2 165.535l6.355 22.832M58.2 165.535l-11.473-2.957" stroke-width="1.2" stroke="#000" stroke-miterlimit="10" fill="none"/><path d="M46.727 162.578L35.25 159.62" stroke-width="1.2" stroke="#0c0" stroke-miterlimit="10" fill="none"/><path d="M64.555 188.367l22.95 5.91M68.242 183.56l18.36 4.725" stroke-width="1.2" stroke="#000" stroke-miterlimit="10" fill="none"/><path d="M25.25 154.12h10v11h-10zm0 0" fill="#fff"/><g fill="#0c0"><use xlink:href="#c" x="25.25" y="162.784"/><use xlink:href="#d" x="31.764" y="162.784"/></g><path d="M63.44 120.285h10v11h-10zm0 0" fill="#fff"/><g fill="#0c0"><use xlink:href="#c" x="63.441" y="128.948"/><use xlink:href="#d" x="69.955" y="128.948"/></g></g></svg>
